Papirus/64x64/apps/redream.svg

<?xml version="1.0" encoding="UTF-8" standalone="no"?>
<svg
   id="_图层_1"
   version="1.1"
   viewBox="0 0 64 64" width="64" height="64"
   sodipodi:docname="redream.svg"
   xml:space="preserve"
   inkscape:version="1.4 (e7c3feb100, 2024-10-09)"
   xmlns:inkscape="http://www.inkscape.org/namespaces/inkscape"
   xmlns:sodipodi="http://sodipodi.sourceforge.net/DTD/sodipodi-0.dtd"
   xmlns:xlink="http://www.w3.org/1999/xlink"
   xmlns="http://www.w3.org/2000/svg"
   xmlns:svg="http://www.w3.org/2000/svg"><sodipodi:namedview
     id="namedview26"
     pagecolor="#505050"
     bordercolor="#eeeeee"
     borderopacity="1"
     inkscape:showpageshadow="0"
     inkscape:pageopacity="0"
     inkscape:pagecheckerboard="0"
     inkscape:deskcolor="#505050"
     inkscape:zoom="10.6875"
     inkscape:cx="32"
     inkscape:cy="32"
     inkscape:window-width="1920"
     inkscape:window-height="939"
     inkscape:window-x="0"
     inkscape:window-y="34"
     inkscape:window-maximized="1"
     inkscape:current-layer="_图层_1" /><!-- Generator: Adobe Illustrator 29.0.1, SVG Export Plug-In . SVG Version: 2.1.0 Build 192)  --><defs
     id="defs6"><style
       id="style1">
      .st0 {
        fill-opacity: .5;
      }

      .st0, .st1, .st2, .st3, .st4, .st5, .st6, .st7 {
        fill: #fff;
      }

      .st8 {
        fill: #133c9a;
      }

      .st2, .st9 {
        display: none;
      }

      .st3 {
        fill-opacity: .2;
      }

      .st4 {
        fill-opacity: .9;
      }

      .st10 {
        fill: #3370ff;
      }

      .st11 {
        fill: url(#_未命名的渐变_3);
      }

      .st12 {
        fill: url(#_未命名的渐变);
      }

      .st5 {
        fill-opacity: .3;
      }

      .st6 {
        fill-opacity: 0;
      }

      .st7 {
        fill-opacity: .7;
      }

      .st13 {
        fill: #00d6b9;
      }

      .st14 {
        fill: url(#_未命名的渐变_2);
      }
    </style><radialGradient
       id="_未命名的渐变"
       data-name="未命名的渐变"
       cx="123.9"
       cy="-40.2"
       fx="123.9"
       fy="-40.2"
       r="59.4"
       gradientTransform="translate(-26.8 25.5) scale(.6 -.7)"
       gradientUnits="userSpaceOnUse"><stop
         offset="0"
         stop-color="#db202e"
         id="stop1" /><stop
         offset="1"
         stop-color="#e01b24"
         id="stop2" /></radialGradient><radialGradient
       id="_未命名的渐变_2"
       data-name="未命名的渐变 2"
       cx="67.6"
       cy="26.8"
       fx="67.6"
       fy="26.8"
       r="105.2"
       gradientTransform="translate(-26.6 25.3) scale(.6 -.7)"
       gradientUnits="userSpaceOnUse"><stop
         offset="0"
         stop-color="#ffb648"
         id="stop3" /><stop
         offset="1"
         stop-color="#ff7800"
         stop-opacity="0"
         id="stop4" /></radialGradient><radialGradient
       id="_未命名的渐变_3"
       data-name="未命名的渐变 3"
       cx="61.7"
       cy="18.6"
       fx="61.7"
       fy="18.6"
       r="68"
       gradientTransform="translate(-26.8 25.8) scale(.6 -.7)"
       gradientUnits="userSpaceOnUse"><stop
         offset="0"
         stop-color="#c64600"
         id="stop5" /><stop
         offset="1"
         stop-color="#a51d2d"
         id="stop6" /></radialGradient><linearGradient
       id="linearGradient1261"><stop
         style="stop-color:#4f4f4f"
         offset="0"
         id="stop1-7" /><stop
         style="stop-color:#3f3f3f"
         offset="1"
         id="stop2-0" /></linearGradient><linearGradient
       id="linearGradient1263"
       x1="34.241"
       x2="37.169"
       y1="38.945"
       y2="30.342"
       gradientTransform="matrix(1.3919157,0,0,1.3888889,-1.321022,-0.4865665)"
       gradientUnits="userSpaceOnUse"
       xlink:href="#linearGradient1261" /></defs><path
     class="st1"
     d="M47.5,64.1H13.8c-7.6,0-13.8-6.3-13.8-13.8V13.7C0,6.2,6.2,0,13.7,0h36.6c7.5,0,13.7,6.2,13.7,13.7v36.6c0,7.5-6.2,13.7-13.7,13.7h-2.9.1Z"
     id="path6"
     style="fill:#f9f9f9;fill-opacity:1" /><g
     id="g26"
     transform="translate(0,-0.5)"><path
       style="fill:#254fd0"
       d="m 34.86386,30.932098 c 1.523518,8.167446 1.051438,15.538378 -0.490506,22.482284 C 22.064238,54.996532 15.2176,53.055002 8,51.352766 l 8.402485,-3.642682 C 5.0186826,35.40223 11.749838,22.260436 15.925515,16.021533 l 0.235194,7.480611 C 21.642788,10.157319 28.301142,6.4611684 40.470588,4.0000022 28.243378,13.969493 27.46183,26.371758 28.63438,39.189366 Z"
       id="path1" /><path
       style="opacity:0.2"
       d="M 29.136142,34.067904 C 27.612622,25.900458 28.084702,18.529526 29.626646,11.585618 41.935762,10.003468 48.7824,11.944999 56,13.647233 l -8.202486,3.642684 c 11.383802,12.307853 4.652648,25.449651 0.47697,31.688553 L 48.03929,41.497856 C 42.55721,54.842684 35.69886,58.538834 23.529412,61 35.756622,51.03051 36.53817,38.628244 35.36562,25.810634 Z"
       id="path2" /><path
       style="fill:#2b93ff"
       d="M 29.136142,33.067904 C 27.612622,24.900458 28.084702,17.529526 29.626646,10.585618 41.935762,9.003468 48.7824,10.944999 56,12.647233 l -8.202486,3.642684 c 11.383802,12.307853 4.652648,25.449651 0.47697,31.688553 L 48.03929,40.497856 C 42.55721,53.842684 35.69886,57.538834 23.529412,60 35.756622,50.03051 36.53817,37.628244 35.36562,24.810634 Z"
       id="path3" /><path
       style="fill:#254fd0"
       d="m 34.86386,30.932098 c 1.523518,8.167446 1.051438,15.538378 -0.490506,22.482284 -2.803954,0.360404 -5.324456,0.537966 -7.630462,0.57716 L 28.63438,39.189366 Z"
       id="path4" /><path
       style="opacity:0.2"
       d="m 40.470703,5 c -0.528879,0.1069613 -1.034551,0.2197142 -1.542969,0.3320312 -1.704487,1.5441275 -3.146653,3.1440553 -4.376953,4.7890628 0.275925,-0.01666 0.548306,-0.0301 0.81836,-0.04297 C 36.796716,8.3275823 38.472503,6.6292383 40.470703,5 Z M 28.398438,27.525391 c -0.119714,1.58794 -0.167534,3.190802 -0.146485,4.808593 0.0043,-1.461342 0.06863,-2.909952 0.193359,-4.345703 -0.01409,-0.15362 -0.03416,-0.309818 -0.04687,-0.46289 z m -18.275391,5.660156 c -0.108207,4.703905 1.319331,9.807536 5.642578,14.800781 l 0.636719,-0.27539 C 11.896668,42.839523 10.234757,37.83853 10.123047,33.185547 Z m 25.65625,7.503906 c 0.01728,4.435879 -0.502834,8.656215 -1.40625,12.724609 -11.45868,1.47284 -18.173954,-0.112249 -24.8710939,-1.710937 L 8,52.353516 c 7.2176,1.702236 14.063931,3.642696 26.373047,2.060546 0.9714,-4.374548 1.515524,-8.918723 1.40625,-13.724609 z"
       id="path5" /><path
       style="opacity:0.1;fill:#ffffff"
       d="M 40.470703,4 C 28.301257,6.4611662 21.642235,10.157128 16.160156,23.501953 l -0.234375,-7.480469 c -2.522956,3.769564 -5.9732648,10.061066 -5.802734,17.164063 0.153918,-6.691079 3.398824,-12.572366 5.802734,-16.164063 l 0.234375,7.480469 C 21.403986,11.737089 27.737538,7.8041155 38.927734,5.3320312 39.422797,4.8835451 39.932022,4.439215 40.470703,4 Z m -5.607422,26.931641 -6.228515,8.257812 c -0.21067,-2.302914 -0.353351,-4.59107 -0.382813,-6.855469 -0.0076,2.589835 0.141047,5.212635 0.382813,7.855469 l 6.228515,-8.257812 c 0.563727,3.022087 0.851835,5.935111 0.916016,8.757812 -0.01221,-3.135246 -0.285118,-6.375626 -0.916016,-9.757812 z M 15.765625,47.986328 8,51.353516 c 0.4986637,0.117607 1.0049071,0.230958 1.5019531,0.349609 l 6.9003909,-2.992187 c -0.222977,-0.241077 -0.427487,-0.482951 -0.636719,-0.72461 z"
       id="path6-9" /><path
       style="opacity:0.2;fill:#ffffff"
       d="m 37.925781,10 c -2.485616,0.01387 -5.221549,0.190399 -8.298828,0.585938 -0.9714,4.374549 -1.515524,8.918722 -1.40625,13.724609 -0.01728,-4.435879 0.502834,-8.656215 1.40625,-12.724609 11.472001,-1.474553 18.189664,0.116213 24.894531,1.716796 L 56,12.646484 C 50.5868,11.369809 45.382632,9.9583783 37.925781,10 Z m 10.503907,7.007812 -0.632813,0.28125 c 4.508814,4.874806 6.169677,9.879419 6.279297,14.535157 0.110439,-4.708252 -1.316698,-9.818036 -5.646484,-14.816407 z M 35.748047,32.666016 c -0.0038,1.28349 -0.04927,2.558217 -0.144531,3.822265 0.0108,0.130423 0.02925,0.264503 0.03906,0.394531 0.08769,-1.394599 0.123907,-2.799664 0.105469,-4.216796 z m -5.556641,21.167968 c -0.248348,0.01779 -0.486837,0.03017 -0.730468,0.04492 -1.586734,2.123489 -3.537714,4.169199 -5.931641,6.121094 0.527796,-0.106742 1.032879,-0.219957 1.541015,-0.332031 2.062857,-1.868637 3.742455,-3.819858 5.121094,-5.833985 z"
       id="path7" /></g></svg>

<svg xmlns="http://www.w3.org/2000/svg" width="64" height="64" version="1.1">
 <path style="fill:#254fd0" d="m 34.86386,30.932098 c 1.523518,8.167446 1.051438,15.538378 -0.490506,22.482284 C 22.064238,54.996532 15.2176,53.055002 8,51.352766 l 8.402485,-3.642682 C 5.0186826,35.40223 11.749838,22.260436 15.925515,16.021533 l 0.235194,7.480611 C 21.642788,10.157319 28.301142,6.4611684 40.470588,4.0000022 28.243378,13.969493 27.46183,26.371758 28.63438,39.189366 Z"/>
 <path style="opacity:0.2" d="M 29.136142,34.067904 C 27.612622,25.900458 28.084702,18.529526 29.626646,11.585618 41.935762,10.003468 48.7824,11.944999 56,13.647233 l -8.202486,3.642684 c 11.383802,12.307853 4.652648,25.449651 0.47697,31.688553 L 48.03929,41.497856 C 42.55721,54.842684 35.69886,58.538834 23.529412,61 35.756622,51.03051 36.53817,38.628244 35.36562,25.810634 Z"/>
 <path style="fill:#2b93ff" d="M 29.136142,33.067904 C 27.612622,24.900458 28.084702,17.529526 29.626646,10.585618 41.935762,9.003468 48.7824,10.944999 56,12.647233 l -8.202486,3.642684 c 11.383802,12.307853 4.652648,25.449651 0.47697,31.688553 L 48.03929,40.497856 C 42.55721,53.842684 35.69886,57.538834 23.529412,60 35.756622,50.03051 36.53817,37.628244 35.36562,24.810634 Z"/>
 <path style="fill:#254fd0" d="m 34.86386,30.932098 c 1.523518,8.167446 1.051438,15.538378 -0.490506,22.482284 -2.803954,0.360404 -5.324456,0.537966 -7.630462,0.57716 L 28.63438,39.189366 Z"/>
 <path style="opacity:0.2" d="M 40.470703 5 C 39.941824 5.1069613 39.436152 5.2197142 38.927734 5.3320312 C 37.223247 6.8761587 35.781081 8.4760865 34.550781 10.121094 C 34.826706 10.104436 35.099087 10.090995 35.369141 10.078125 C 36.796716 8.3275823 38.472503 6.6292383 40.470703 5 z M 28.398438 27.525391 C 28.278724 29.113331 28.230904 30.716193 28.251953 32.333984 C 28.256234 30.872642 28.320582 29.424032 28.445312 27.988281 C 28.431224 27.834661 28.411153 27.678463 28.398438 27.525391 z M 10.123047 33.185547 C 10.01484 37.889452 11.442378 42.993083 15.765625 47.986328 L 16.402344 47.710938 C 11.896668 42.839523 10.234757 37.83853 10.123047 33.185547 z M 35.779297 40.689453 C 35.796574 45.125332 35.276463 49.345668 34.373047 53.414062 C 22.914367 54.886902 16.199093 53.301813 9.5019531 51.703125 L 8 52.353516 C 15.2176 54.055752 22.063931 55.996212 34.373047 54.414062 C 35.344447 50.039514 35.888571 45.495339 35.779297 40.689453 z"/>
 <path style="fill:#ffffff;opacity:0.1" d="M 40.470703 4 C 28.301257 6.4611662 21.642235 10.157128 16.160156 23.501953 L 15.925781 16.021484 C 13.402825 19.791048 9.9525162 26.08255 10.123047 33.185547 C 10.276965 26.494468 13.521871 20.613181 15.925781 17.021484 L 16.160156 24.501953 C 21.403986 11.737089 27.737538 7.8041155 38.927734 5.3320312 C 39.422797 4.8835451 39.932022 4.439215 40.470703 4 z M 34.863281 30.931641 L 28.634766 39.189453 C 28.424096 36.886539 28.281415 34.598383 28.251953 32.333984 C 28.244367 34.923819 28.393 37.546619 28.634766 40.189453 L 34.863281 31.931641 C 35.427008 34.953728 35.715116 37.866752 35.779297 40.689453 C 35.767085 37.554207 35.494179 34.313827 34.863281 30.931641 z M 15.765625 47.986328 L 8 51.353516 C 8.4986637 51.471123 9.0049071 51.584474 9.5019531 51.703125 L 16.402344 48.710938 C 16.179367 48.469861 15.974857 48.227987 15.765625 47.986328 z"/>
 <path style="fill:#ffffff;opacity:0.2" d="M 37.925781 10 C 35.440165 10.013874 32.704232 10.190399 29.626953 10.585938 C 28.655553 14.960487 28.111429 19.50466 28.220703 24.310547 C 28.203425 19.874668 28.723537 15.654332 29.626953 11.585938 C 41.098954 10.111385 47.816617 11.702151 54.521484 13.302734 L 56 12.646484 C 50.5868 11.369809 45.382632 9.9583783 37.925781 10 z M 48.429688 17.007812 L 47.796875 17.289062 C 52.305689 22.163868 53.966552 27.168481 54.076172 31.824219 C 54.186611 27.115967 52.759474 22.006183 48.429688 17.007812 z M 35.748047 32.666016 C 35.744287 33.949506 35.698781 35.224233 35.603516 36.488281 C 35.614316 36.618704 35.632764 36.752784 35.642578 36.882812 C 35.730273 35.488213 35.766485 34.083148 35.748047 32.666016 z M 30.191406 53.833984 C 29.943058 53.851776 29.704569 53.864157 29.460938 53.878906 C 27.874204 56.002395 25.923224 58.048105 23.529297 60 C 24.057093 59.893258 24.562176 59.780043 25.070312 59.667969 C 27.133169 57.799332 28.812767 55.848111 30.191406 53.833984 z"/>
</svg>
